X:215
T: Wanderlied
N: A0260
O: Europa, Mitteleuropa, Deutschland
N: Forster II 1540 No. 18.
R: Romanze, Ballade, Lied
M: 4/2
L: 1/4
K: F
F2 | F2c2A2F2 | G4A2
A2 | d4c2c2 | B2A2G4 | F4z2
F2 | F2c2A2F2 | G4A2
A2 | d4c2c2 | B2A2G4 | F4z2
F2 | A2A2F2F2 | G4F2
c2 | A4c2B4A2 | G4z2
c2 | c2c2c2c4B2 | A2GFG4 | F4z4 |
z2F2F2G2 | B2A2G4 | F6

@@@ Tune index: 215
